X:1
T:Three Camps
S:Ashworth's Instructor, p. 28
M:2/4
L:1/8
K:G
%%MIDI program 72
%%MIDI transpose 8
c|B2A2|G3g|f2e2|(d/^c/d/e/) d>=c|B2A2|G3g|f2e2|d3::
d|gd BA/G/|e3d|c2B2|A3c|B2A2|G2g2|B2cA|G3:|]

